X: 1
T: Woodside
C: Grant Crawford
R: jig
Z: 2018 John Chambers <jc:trillian.mit.edu>
S: https://rscdsleeds.us12.list-manage.com/track/click?u=0a305577fb785fc871ac76e9e&id=2f2b90b2ee&e=566ec76c21 2018-12-27
N: Tune for Scottish country dance with the same name, by James McMillan for Maureen Daniel, 2008.
M: 6/8
L: 1/8
K: D
A |\
"D"DFE FAd | "D"fde dAF| "G"BAG "D/F#"AFD | "Em"EFE "A7"E2F |\
"D"DFE "D/C#"FAd | "D/B"fde "D7/A"dAF| "G"BAG "D/F#"AFD | "A7/E"EFE "D"D2 :|
A |\
"D"def "A7"efg | "D"afd "D7/A"AGF | "G"BAG "D"AFD | "Em"EFG "A7"ABc |\
"D"def "A7/E"efg | "D/F#"agf "D7"ecA | "G"BdB "A7"cec | "D"Add d2 ||
A |\
"D"def "A7/C#"efg | "D/B"afd "D7/A"AGF | "G"BAG "D/A"AFD | "Em/B"EFE "A7/C#"E2F |\
"D"DFE "D/C#"FAd | "D/B"fde "D7/A"dAF| "G"BAG "D/F#"AFD | "A7/E"EFE "D"D2 |]
